X: 31198
T: Paddy Fahey's
R: reel
M: 4/4
K: Dmajor
||A2 AG EGGB|Addc dfaf|gefd ceAB|cdef gece|
dcAG EFGB|Ad(3ddc dfaf|gefd ceAB|=cAGE EDDA|
(3ddd AG EFGB|Ad (3ddd dfaf|fgfd ceAB|=cdea ge^ce|
dcAG EFGB|Ad(3ddc dfaf|gefd ceAB|=cAGE EDDA||
dfaf fgfg|afge fdAB|=cdea (3gagfg|afge fddc|
dfaf (3gagfg|afge dfaf|gefd ceAB|=cAGE EDDA|
dfaf (3gaggg|gage dcAB|B=cea (3gagfg|gage faef|
dfaf (3gagfg|afge dfaf|gefd ceAB|=cAGE EDD2||

